!!!OTL: Kriegsmanier.
!!!OTL-incipit: ZIEHT DER DEUTSCHE IN DEN KRIEG
!!!COM: Volksweise
!!!ARE: Europa, Mitteleuropa, Deutschland
!!!SCT: F0595
!!!TXL: @@DE
!!!YEM: Copyright 1995, estate of Helmut Schaffrath.
**kern	**text
*ICvox	*
*I"Tenor I	*
*clefG2	*
*M2/4	*
*k[f#c#g#]	*
*A:	*
=1	=1
!LO:TX:a:t=Schell und derb.	!
{8cc#/L	1._Ʒieht
8ddJ	.
4ee/	der
=2	=2
4ee/	Teutſche
4ee/	.
=3	=3
4ff#/	in
4ff#/	den
=4	=4
2ee/}	Krieg,
=5	=5
{8cc#/L	winkt
8ddJ	.
4ee/	ihm
=6	=6
4ee/	Eh-
4ee/	-re,
=7	=7
4ff#/	winkt
4ff#/	ihm
=8	=8
2ee/}	Sieg.
=9	=9
{4ee/	Hau,
4r	.
=10	=10
4ee/	hau
4r	.
=11	=11
4ee/	hau
4ee/	ſie
=12	=12
4ee/	nie-
4ee/}	-der,
=13	=13
{4ee/	kling
4r	.
=14	=14
4ee/	klang
4r	.
=15	=15
4ee/	trinket
4ee/	.
=16	=16
2ee/	wie-
=17	=17
4ee/	-der!
4r}	.
==	==
!!!AGN: Soldaten - Lied, Krieg, national
!!!ONB: ESAC (Essen Associative Code) Database: FINK
!!!AMT: simple duple
!!!AIN: vox
!!!EED: Helmut Schaffrath
!!!EEV: 1.0
!!!GTL: Soldaten- und Jaegerlieder
!!Text: Volkslied
!!!source: Musikalischer Hausschatz der Deutschen. Eine Sammlung von über 1000 Liedern und Gesängen mit Singstimmen und Klavierbegleitung. Leipzig, Litterarisches Verlags-Haus.
!!!page: 387
!!!URL-scan: https://www.digitale-sammlungen.de/en/view/bsb11144622?page=354
!!!ENC: Anna Maria Matuszewska
!!!EEV: 2024/08/02
*-	*-